cross.svg

<svg enable-background="new 0 0 512.003 512.003" viewBox="0 0 512.003 512.003" xmlns="http://www.w3.org/2000/svg"><path d="m504.095 389.589-133.589-133.589 133.589-133.591c5.063-5.061 7.906-11.926 7.906-19.085 0-7.158-2.843-14.024-7.906-19.083l-76.338-76.336c-10.538-10.538-27.628-10.538-38.168 0l-133.587 133.589-133.592-133.589c-10.538-10.538-27.628-10.538-38.168 0l-76.335 76.336c-10.54 10.54-10.54 27.628 0 38.168l133.589 133.593-133.589 133.587c-10.54 10.54-10.54 27.628 0 38.168l76.338 76.338c5.061 5.061 11.926 7.906 19.085 7.906 7.158 0 14.024-2.845 19.083-7.906l133.589-133.591 133.589 133.591c5.061 5.061 11.926 7.906 19.083 7.906 7.159 0 14.024-2.845 19.085-7.906l76.338-76.338c10.54-10.538 10.54-27.626-.002-38.168z" fill="#ff9b9b"/><path d="m7.907 427.759 76.338 76.338c5.06 5.061 11.926 7.906 19.083 7.906 7.159 0 14.024-2.845 19.083-7.906l133.589-133.591v-229.012l-133.59-133.589c-10.538-10.54-27.628-10.54-38.168 0l-76.335 76.336c-10.54 10.54-10.54 27.628 0 38.168l133.589 133.593-133.589 133.587c-10.542 10.542-10.542 27.63 0 38.17z" fill="#ff5757"/></svg>

<?xml version="1.0" encoding="iso-8859-1"?>
<!-- Generator: Adobe Illustrator 19.0.0, SVG Export Plug-In . SVG Version: 6.00 Build 0)  -->
<svg version="1.1" id="Layer_1" xmlns="http://www.w3.org/2000/svg" xmlns:xlink="http://www.w3.org/1999/xlink" x="0px" y="0px"
	 viewBox="0 0 512.003 512.003" style="enable-background:new 0 0 512.003 512.003;" xml:space="preserve">
<path style="fill:#9BC9FF;" d="M504.095,389.589L370.506,256l133.589-133.591c5.063-5.061,7.906-11.926,7.906-19.085
	c0-7.158-2.843-14.024-7.906-19.083L427.757,7.905c-10.538-10.538-27.628-10.538-38.168,0L256.002,141.494L122.41,7.905
	c-10.538-10.538-27.628-10.538-38.168,0L7.907,84.241c-10.54,10.54-10.54,27.628,0,38.168l133.589,133.593L7.907,389.589
	c-10.54,10.54-10.54,27.628,0,38.168l76.338,76.338c5.061,5.061,11.926,7.906,19.085,7.906c7.158,0,14.024-2.845,19.083-7.906
	l133.589-133.591l133.589,133.591c5.061,5.061,11.926,7.906,19.083,7.906c7.159,0,14.024-2.845,19.085-7.906l76.338-76.338
	C514.637,417.219,514.637,400.131,504.095,389.589z"/>
<path style="fill:#57A4FF;" d="M7.907,427.759l76.338,76.338c5.06,5.061,11.926,7.906,19.083,7.906
	c7.159,0,14.024-2.845,19.083-7.906L256,370.506V141.494L122.41,7.905c-10.538-10.54-27.628-10.54-38.168,0L7.907,84.241
	c-10.54,10.54-10.54,27.628,0,38.168l133.589,133.593L7.907,389.589C-2.635,400.131-2.635,417.219,7.907,427.759z"/>
<g>
</g>
<g>
</g>
<g>
</g>
<g>
</g>
<g>
</g>
<g>
</g>
<g>
</g>
<g>
</g>
<g>
</g>
<g>
</g>
<g>
</g>
<g>
</g>
<g>
</g>
<g>
</g>
<g>
</g>
</svg>
